X: 43494
T: Yellow Wattle, The
R: jig
M: 6/8
K: Dmixolydian
dcA AGE|[A3A3] ABc|dcA ABc|dcA GED|
dcA AGE|ABA AGE|DE/E/D cde|1 dcA GAc:|2 dcA GEA||
DE/E/D ~c3|ded ~c3|ded cde|dcA GEA|
DE/E/D ~c3|ded d2 c|ABA ABc|1 dcA GEA:|2 dcA GAc||

